X: 23
T: BIG BEN
%R: hornpipe
B: Jean White "100 Popular Hornpipes, Reels, Jigs and Country Dances", Boston 1880 p.10
F: http://www.loc.gov/resource/sm1880.09124.0#seq-1
Z: 2014 John Chambers <jc:trillian.mit.edu>
M: C|
L: 1/8
K: Bb
% - - - - - - - - - - - - - - - - - - - - - - - - - - - - -
F2 |\
B2(FB) (3dcB (3AGF | E2g2 g2f>e | d>fd>B c>ec>A | B2 (3dfb A2 (3ceg |
B2(FB) (3dcB (3AGF | E2g2 g2f>e | (3dba (3gfe (3ded (3cBA | B2d2 B2 :|
|: F2 |\
B>df>b (b>a) (b>a) | g>^fg>f g2c>B | A>Bc>d e>gf>e | d>^cd>c d2d>=c |
B>df>b (b>a) (b>a) | F>Ac>e g2f>e | (3dfd B>d (3cec A>c | B2b2 B2 H:|
% - - - - - - - - - - - - - - - - - - - - - - - - - - - - -

%%sep 1 1 500
%%sep 1 1 500
